X: 94
T: Verbum caro factum est
C: Gaspar van Weerbeke
%%abc-version 2.0
%%abcx-abcm2ps-target-version 5.9.1 (29 Sep 2008)
%%abc-creator hum2abc beta
%%abcx-conversion-date 2022/03/06 13:05:56
%%abc-copyright Copyright 2008, Pavanello, Agnese
%%abc-edited-by Mair-Gruber, Roland
%%humdrum-veritas 1895369495
%%humdrum-veritas-data 1888548139
%%linebreak <none>
%%barnumbers 0
L: 1/4
M: 2/2
N: Derived from Gas0418-Verbum_caro_factum_est.krn
%%staves [1 2 3 4]
V: 1 clef=treble
V: 2 clef=treble-8
V: 3 clef=treble-8
V: 4 clef=bass
K: C
[V:1] G4 | 
[V:2] d4 | 
[V:3] G4 | 
[V:4] G,,4 | 
[V:1] !fermata!G4 | 
[V:2] !fermata!d4 | 
[V:3] !fermata!G4 | 
[V:4] !fermata!G,,4 | 
[V:1] A4- | 
[V:2] f4- | 
[V:3] c4- | 
[V:4] F,4- | 
[V:1] A2A2 | 
[V:2] f2f2 | 
[V:3] c2c2 | 
[V:4] F,2F,2 | 
[V:1] c4- | 
[V:2] e4- | 
[V:3] c4- | 
[V:4] A,4- | 
[V:1] c2c2 | 
[V:2] e2f2 | 
[V:3] c2c2 | 
[V:4] A,2A,2 | 
[V:1] !fermata!B4 | 
[V:2] !fermata!g4 | 
[V:3] !fermata!d4 | 
[V:4] !fermata!G,4 | 
[V:1] c4 | 
[V:2] e4 | 
[V:3] c4 | 
[V:4] A,4 | 
[V:1] c2c2 | 
[V:2] e2e2 | 
[V:3] c2c2 | 
[V:4] A,2A,2 | 
[V:1] A4 | 
[V:2] f2c3/d/ | 
[V:3] c4 | 
[V:4] F,4 | 
[V:1] G2A2- | 
[V:2] e2A2- | 
[V:3] c4 | 
[V:4] E,2F,2- | 
[V:1] AGE2 | 
[V:2] A2c2 | 
[V:3] c4 | 
[V:4] F,E,C,2 | 
[V:1] D2G2- | 
[V:2] dBc2 | 
[V:3] B2G2 | 
[V:4] G,2E,2 | 
[V:1] G2^F2 | 
[V:2] d4 | 
[V:3] A4 | 
[V:4] D,4 | 
[V:1] !fermata!G4 | 
[V:2] !fermata!d4 | 
[V:3] !fermata!G4 | 
[V:4] !fermata!G,,4 | 
[V:1] G4 | 
[V:2] d4 | 
[V:3] B4 | 
[V:4] G,4 | 
[V:1] A4 | 
[V:2] f4 | 
[V:3] c4 | 
[V:4] F,4 | 
[V:1] A2A2 | 
[V:2] f2f2 | 
[V:3] c2c2 | 
[V:4] F,2F,2 | 
[V:1] c4 | 
[V:2] z2f2 | 
[V:3] A3B | 
[V:4] F,4 | 
[V:1] c2B2- | 
[V:2] e>fg2- | 
[V:3] c2d2- | 
[V:4] A,2G,2- | 
[V:1] BAA2- | 
[V:2] g2e2- | 
[V:3] d2c2 | 
[V:4] G,2A,2 | 
[V:1] A2^G2 | 
[V:2] e4 | 
[V:3] B4 | 
[V:4] E,4 | 
[V:1] A4 | 
[V:2] c4 | 
[V:3] A4 | 
[V:4] F,4 | 
[V:1] z2E2 | 
[V:2] e3g- | 
[V:3] G4 | 
[V:4] C,4 | 
[V:1] E2E2 | 
[V:2] g/f/e/d<cB/ | 
[V:3] G2G2 | 
[V:4] C,2E,2 | 
[V:1] F4 | 
[V:2] d4 | 
[V:3] A3B | 
[V:4] D,4 | 
[V:1] E4 | 
[V:2] G2g2 | 
[V:3] c4 | 
[V:4] C,4 | 
[V:1] G2G2 | 
[V:2] e2e2 | 
[V:3] c2c2 | 
[V:4] C,2C,2 | 
[V:1] A2A2 | 
[V:2] f2f2 | 
[V:3] c2c2 | 
[V:4] F,2F,2 | 
[V:1] G4 | 
[V:2] e4 | 
[V:3] c4 | 
[V:4] C,4 | 
[V:1] E2F2- | 
[V:2] z2c2- | 
[V:3] c2A2- | 
[V:4] C,2F,2 | 
[V:1] FED2 | 
[V:2] c2A2- | 
[V:3] AGF2 | 
[V:4] C,2D,2 | 
[V:1] C2E2- | 
[V:2] A2B2 | 
[V:3] E2G2- | 
[V:4] A,,2G,,2 | 
[V:1] EDD2- | 
[V:2] c2A2- | 
[V:3] GAF2 | 
[V:4] C,2D,2 | 
[V:1] D2^C2 | 
[V:2] A4 | 
[V:3] E4 | 
[V:4] A,,4 | 
[V:1] D4 | 
[V:2] a3f | 
[V:3] D2A2 | 
[V:4] z2D,2 | 
[V:1] z4 | 
[V:2] g2f2 | 
[V:3] B2d2- | 
[V:4] G,2D,2 | 
[V:1] z2A2 | 
[V:2] e4 | 
[V:3] d2^c2 | 
[V:4] A,4 | 
[V:1] B2d2- | 
[V:2] d4 | 
[V:3] d2B2 | 
[V:4] D,4 | 
[V:1] d2^c2 | 
[V:2] e4 | 
[V:3] A4 | 
[V:4] z4 | 
[V:1] d3c/B/ | 
[V:2] defg | 
[V:3] z2d2- | 
[V:4] D,3E, | 
[V:1] A4 | 
[V:2] aef2 | 
[V:3] d2c2 | 
[V:4] F,G,A,2 | 
[V:1] z2d2- | 
[V:2] gdg2- | 
[V:3] B2G2 | 
[V:4] G,4 | 
[V:1] d2c2 | 
[V:2] g2^f2 | 
[V:3] A4 | 
[V:4] z4 | 
[V:1] B2G2 | 
[V:2] g4 | 
[V:3] G4 | 
[V:4] z2G,2 | 
[V:1] A4 | 
[V:2] c3d | 
[V:3] z2c2 | 
[V:4] F,4 | 
[V:1] G2A2- | 
[V:2] e2f2 | 
[V:3] B2c2- | 
[V:4] G,2F,2- | 
[V:1] AFG2 | 
[V:2] cde2 | 
[V:3] cABc | 
[V:4] F,2E,2 | 
[V:1] !fermata!^F4- | 
[V:2] A2BA | 
[V:3] d3c/B/ | 
[V:4] !fermata!D,4- | 
[V:1] F4 ||  
[V:2] !fermata!d4 ||  
[V:3] !fermata!A4 ||  
[V:4] D,4 ||  
[V:1] [M:3/2]z6 | 
[V:2] [M:3/2]g4e2 | 
[V:3] [M:3/2]G4G2 | 
[V:4] [M:3/2]z6 | 
[V:1] z6 | 
[V:2] f4g2 | 
[V:3] A4G2 | 
[V:4] z6 | 
[V:1] G4G2 | 
[V:2] e4d2 | 
[V:3] c4B2 | 
[V:4] z6 | 
[V:1] A4G2 | 
[V:2] e2c2e2 | 
[V:3] A2c3B | 
[V:4] z6 | 
[V:1] c4B2 | 
[V:2] f2>e2d2 | 
[V:3] AGA2G2 | 
[V:4] F,4G,2 | 
[V:1] A2_B3A | 
[V:2] c2f2d2- | 
[V:3] c2d3c | 
[V:4] A,2D,2G,2- | 
[V:1] G4^F2 | 
[V:2] d2d4 | 
[V:3] B2A4 | 
[V:4] G,2D,4 | 
[V:1] G4z2 | 
[V:2] B2>c2d2 | 
[V:3] G6 | 
[V:4] G,,6 | 
[V:1] B4B2 | 
[V:2] g4g2 | 
[V:3] d4d2 | 
[V:4] G,4G,2 | 
[V:1] B4A2 | 
[V:2] g4e2- | 
[V:3] d4c2 | 
[V:4] G,4A,2 | 
[V:1] GABcd2 | 
[V:2] e2d3e | 
[V:3] B2>G2B2 | 
[V:4] E,2G,4 | 
[V:1] c4B2 | 
[V:2] f2g4 | 
[V:3] c2d4 | 
[V:4] A,2G,4 | 
[V:1] c6 | 
[V:2] e6 | 
[V:3] c4z2 | 
[V:4] C,6 | 
[V:1] z6 | 
[V:2] c2>d2e2 | 
[V:3] A4c2 | 
[V:4] F,4E,2 | 
[V:1] A4c2 | 
[V:2] f4e2 | 
[V:3] d4c2 | 
[V:4] D,4A,2 | 
[V:1] d4c2 | 
[V:2] g2>f2a2 | 
[V:3] B4A2 | 
[V:4] G,2>D,2F,2 | 
[V:1] B4A2 | 
[V:2] g4e2 | 
[V:3] d4c2 | 
[V:4] G,4z2 | 
[V:1] c2B3A | 
[V:2] f2d2f2 | 
[V:3] A2G2A2- | 
[V:4] F,2G,2F,2 | 
[V:1] A4^G2 | 
[V:2] e6 | 
[V:3] A2B4 | 
[V:4] A,2E,4 | 
[V:1] A4z2 | 
[V:2] c6 | 
[V:3] A6 | 
[V:4] F,6 | 
[V:1] A4A2- | 
[V:2] f4c2 | 
[V:3] c4c2- | 
[V:4] F,4F,2- | 
[V:1] A2G4 | 
[V:2] A2B2G2 | 
[V:3] c2B2c2 | 
[V:4] F,2G,2E,2 | 
[V:1] F4G2 | 
[V:2] A4z2 | 
[V:3] d4B2 | 
[V:4] D,4G,2 | 
[V:1] A2>G2F2 | 
[V:2] z4d2 | 
[V:3] c2A3B | 
[V:4] F,2>E,2D,2 | 
[V:1] !fermata!E6- | 
[V:2] G4G2 | 
[V:3] !fermata!c6- | 
[V:4] !fermata!C,6- | 
[V:1] E6- | 
[V:2] c2>B2A2 | 
[V:3] c6- | 
[V:4] C,6- | 
[V:1] E6 ||  
[V:2] !fermata!G6 ||  
[V:3] c6 ||  
[V:4] C,6 ||  
[V:1] z6 | 
[V:2] z6 | 
[V:3] G4A2 | 
[V:4] z6 | 
[V:1] z6 | 
[V:2] z6 | 
[V:3] c4B2 | 
[V:4] C,4E,2 | 
[V:1] z6 | 
[V:2] z6 | 
[V:3] A2>G2F2 | 
[V:4] F,2>G,2A,2 | 
[V:1] z6 | 
[V:2] z6 | 
[V:3] E2>F2GA | 
[V:4] G,4E,2 | 
[V:1] z6 | 
[V:2] z6 | 
[V:3] B2c2BA | 
[V:4] D,2E,3D, | 
[V:1] z6 | 
[V:2] z6 | 
[V:3] A4^G2 | 
[V:4] C,2B,,4 | 
[V:1] z6 | 
[V:2] z6 | 
[V:3] A4z2 | 
[V:4] A,,4C,2 | 
[V:1] z6 | 
[V:2] z6 | 
[V:3] G2F2A2 | 
[V:4] B,,2D,2C,2 | 
[V:1] z6 | 
[V:2] z6 | 
[V:3] G2B2A2 | 
[V:4] E,2D,2F,2 | 
[V:1] z6 | 
[V:2] z6 | 
[V:3] c2B2d2- | 
[V:4] E,2G,2F,2 | 
[V:1] z6 | 
[V:2] z6 | 
[V:3] dcBAGF | 
[V:4] D,2>C,2B,,A,, | 
[V:1] z6 | 
[V:2] z6 | 
[V:3] G2A3G | 
[V:4] B,,2C,3D, | 
[V:1] z6 | 
[V:2] z6 | 
[V:3] G4^F2 | 
[V:4] B,,2A,,4 | 
[V:1] z6 | 
[V:2] B4d2 | 
[V:3] G4z2 | 
[V:4] G,,4z2 | 
[V:1] z6 | 
[V:2] e2>d2B2 | 
[V:3] E4G2 | 
[V:4] z6 | 
[V:1] E4G2 | 
[V:2] A2c2B2 | 
[V:3] A4G2 | 
[V:4] z6 | 
[V:1] A4G2 | 
[V:2] A2e4 | 
[V:3] c4B2 | 
[V:4] A,,4E,2 | 
[V:1] c4B2 | 
[V:2] c2A2z2 | 
[V:3] A4d2 | 
[V:4] F,4G,2 | 
[V:1] A4^G2 | 
[V:2] e4e2 | 
[V:3] c2B4 | 
[V:4] A,2E,4 | 
[V:1] A6 | 
[V:2] c2f2d2 | 
[V:3] A6 | 
[V:4] A,,2D,C,B,,A,, | 
[V:1] z6 | 
[V:2] g4f2 | 
[V:3] d4c2 | 
[V:4] G,,2G,2A,2 | 
[V:1] z6 | 
[V:2] g2c4 | 
[V:3] B2A4 | 
[V:4] G,4F,2 | 
[V:1] d4c2 | 
[V:2] B2A2z2 | 
[V:3] G4A2 | 
[V:4] G,A,B,CA,2 | 
[V:1] B2A3G | 
[V:2] d>ef4 | 
[V:3] B2c2d2 | 
[V:4] G,2F,2D,2 | 
[V:1] G4^F2 | 
[V:2] d6 | 
[V:3] B2A4 | 
[V:4] G,2D,4 | 
[V:1] [M:2/2]!fermata!G4 | 
[V:2] [M:2/2]!fermata!B4 | 
[V:3] [M:2/2]!fermata!G4 | 
[V:4] [M:2/2]!fermata!G,,4 | 
[V:1] z2c2 | 
[V:2] z2A2 | 
[V:3] z2E2 | 
[V:4] z2A,,2 | 
[V:1] c4 | 
[V:2] c4 | 
[V:3] E4 | 
[V:4] A,,4 | 
[V:1] !fermata!B4 | 
[V:2] !fermata!d4 | 
[V:3] !fermata!G4 | 
[V:4] !fermata!G,,4 | 
[V:1] z2B2 | 
[V:2] z2d2 | 
[V:3] z2G2 | 
[V:4] z2G,2 | 
[V:1] B4 | 
[V:2] d4 | 
[V:3] B4 | 
[V:4] G,4 | 
[V:1] !fermata!A4 | 
[V:2] !fermata!f4 | 
[V:3] !fermata!c4 | 
[V:4] !fermata!F,4 | 
[V:1] z2A2 | 
[V:2] z2f2 | 
[V:3] z2d2 | 
[V:4] z2D,2 | 
[V:1] A2A2 | 
[V:2] f2c2 | 
[V:3] d2A2 | 
[V:4] D,2F,2 | 
[V:1] G4 | 
[V:2] e4 | 
[V:3] B4 | 
[V:4] E,4 | 
[V:1] !fermata!^F4 | 
[V:2] !fermata!A4 | 
[V:3] !fermata!d4 | 
[V:4] !fermata!D,4 | 
[V:1] z4 | 
[V:2] G2EC | 
[V:3] z4 | 
[V:4] G,,3A,,- | 
[V:1] z4 | 
[V:2] FED2 | 
[V:3] z4 | 
[V:4] A,,C,B,,2 | 
[V:1] z4 | 
[V:2] z2c2 | 
[V:3] G3A- | 
[V:4] C,3C, | 
[V:1] z4 | 
[V:2] e2d2 | 
[V:3] AcB2 | 
[V:4] C,2D,2 | 
[V:1] G3A- | 
[V:2] e>fgf- | 
[V:3] c3c | 
[V:4] C,2E,F,- | 
[V:1] AcB2 | 
[V:2] f/e/fg2 | 
[V:3] c2d2 | 
[V:4] F,/G,/A,G,2 | 
[V:1] c3c | 
[V:2] zg2e | 
[V:3] c2G2 | 
[V:4] C,4 | 
[V:1] d2c3/B/ | 
[V:2] d2e2 | 
[V:3] B2G2 | 
[V:4] B,,2C,2 | 
[V:1] A/G/A2B- | 
[V:2] f2z2 | 
[V:3] Ac2d- | 
[V:4] F,3D, | 
[V:1] BA/G/FA- | 
[V:2] d3f- | 
[V:3] dc/B/Ac- | 
[V:4] G,2zF,- | 
[V:1] AG2^F | 
[V:2] f/e/d3 | 
[V:3] cBA2 | 
[V:4] F,G,D,2 | 
[V:1] G4 |]  
[V:2] d4 |]  
[V:3] G4 |]  
[V:4] G,,4 |]  


